X: 34872
T: Robert Jordan
R: hornpipe
M: 4/4
K: Amajor
e2ce f2e2|c2cB A2FE|EFA2 A2 (3ABc|e2c2 B3e|
Bce2 efe2|ecBA a2A2|abc'b bafe|f4- f3e|
fgaf efec|BABc e3c/f/|e2cB ABcB|AFB2 B3A/B/|
cBAG ABcA|BAFE FGAF|EFEC ECB,E|A,4 A,4|
E2B,C EFCF|ECB,A, A2A,2|ABcB BAFE|F3F f2f2|
cBAB c2a2|cBAB c2a2|b2af efec|B4- BBcA|
F2A2 ABAF|EFAB cBcA|BABc eceB|A2f2 f2fe|
BccB A2Bc|ABcA F3e|fecB AGAE|EFAB||

